X: 1004
T: Her Kimde Vardır
C: Civan Ağa
O: Turkey
F: http://compmusic.upf.edu/node/140
N: kurdilihicazkar--sarki--duyek--her_kimde--civan_aga
N: makam= kurdilihicazkar
N: form= sarki
N: usul= duyek = 8/4
M: 8/4
L: 1/16
K: C _B _e _A 
Q: 1/4=120
%%MIDI tuningsystem comma53
z2 f4 ga gf fe _1/4ba ag  | g2 c'b b=a ag g3/2a/ gf _1/4ed c2  | 
w:   |   | 
z2 _1/4ef g=a gf f3e fe ed  | d2 cd _1/4e2 de f2 ef g4  | 
w:   |   | 
z2 f4 ga gf fe _1/4ba ag  | g2 c'b b=a ag g3/2a/ gf _1/4ed c2  | 
w:   |   | 
z2 _1/4ef g=a gf f3e fe ed  | d6 _1/4ef gf ef g4  | 
w:   |   | 
z2 c4 g2 gf f_1/4e ed de  | f6 _1/4e2 g2 a2 gf e3/2d/  | \
w:   |   | 
c2 z2 d_1/4e gf ed d3c cB  | 
w:   | 
_1/4e2 dc c6 g2 f2 a2  | gf e3/2d/ c2 z2 Bc de dc B2  | \
w:   |   | 
cB BA AG e6 d2 de  | 
w:   | 
fg fe dc z2 Bc de dc cB2_1/4A BA AG G6 b2 =ab  | 
w:   | 
c'=a b4 z2 b4 ba a3g g3f b6 ba ag  | \
w:   | 
gf f_1/4e ed c2 ef g=a gf f3e fe ed d2 cd e2 de f2  | 
w:   | 
_1/4ef g4 z2 b4 b=a a3g g3f b6 ba ag  | \
w:   | 
gf f_1/4e ed c2 ef g=a gf f3e fe ed d4 z2 ef g3/2f3/4efg4z2c4g2gffeeddef6e2g2_a2gfe3/2d/c2z2degfedd3ccBdcc6g2f2a2gf_e3/2d/c2z2BcdedcB2cBBAAGe6d2defgfedcz2BcdedccB2ABAAGG6dedcBAG4B2cdedcdB2cBBAAGG4z2dedcBcd4c2def2gab3/2a/gafeedd2=abaggffeedd4f2g_ab2c'd'c'2b2a2g2f2e2defagfedc4Bcde(3ggf(3edcB2cBBAAGG3edccBBAAGG4B2cdedcdB2cBBAAGG4z2dedcBcd4c2def2gab3/2a/gafeedd2=abaggffeedd4f2g_ab2c'd'c'2b2a2g2f2e2defagfedc4Bcde(3ggf(3edcB2cBBAAGG3edccBBAAGG4z2c4g2gff_1/4eeddef6e2g2a2gfe3/2d/c2z2degfedd3ccBdcc6g2f2a2gf_e3/2d/c2z2BcdedcB2cBBAAGe6d2defgfedcz2BcdedccB2ABAAGG12z4|
w:   | 


